X: 2123
T: Ömründe Sarmadın
C: Ömer Sami Güpgüp
O: Turkey
F: http://compmusic.upf.edu/node/140
N: huzzam--sarki--duyek--omrunde_sarmadin--omer_sami_gupgup
N: makam= huzzam
N: form= sarki
N: usul= duyek = 8/4
M: 8/4
L: 1/16
K: C _1/4B _3/4e ^3/4f 
Q: 1/4=144
%%MIDI tuningsystem comma53
z2 gf g2 _7/8b2 a3g f4  | z2 gf _2/4e2 g2 f2 e2 d4  | \
w:  Öm *  *  *  rün *  de   |  sar *  *  ma dın  *  sen   | 
z2 _2/4ed c2 d2 e4 c2 c2  | 
w:  hiç  *  *  *  *  ge ce  | 
B8 d_2/4e fa g4  | f2 g4 f2 g2 ag f2 g2  | \
w:  yi   SAZ  |  U mut *  suz   | 
z2 gf _2/4e2 g2 f4 z4  | 
w:  ol *  *  ma yı   | 
a2 g2 _b2 a2 g2 gf _2/4e2 d2  | d8 dB GB d4  | \
w:  ner *  den  *  bi lir  |  sin   SAZ  | 
z2 _bb ba g2 z2 aa ag f2  | 
w:   | 
z2 gg gf _2/4e2 dc B^A B4  | z2 gf g2 _7/8b2 a3g f4  | \
w:   |  Öm *  *  *  rün *  de   | 
z2 gf _2/4e2 g2 f2 e2 d4  | 
w:  sar *  *  ma dın  *  sen   | 
z2 _2/4ed c2 d2 e4 c2 c2  | B8 d_2/4e fa g4  | \
w:  hiç  *  *  *  *  ge ce  |  yi   SAZ  | 
f2 g4 f2 g2 ag f2 g2  | 
w:  U mut *  suz   | 
z2 gf _2/4e2 g2 f4 z4  | a2 g2 _b2 a2 g2 gf _2/4e2 d2  | \
w:  ol *  *  ma yı   |  ner *  den  *  bi lir  | 
d8 dB GB d4  | 
w:  sin   SAZ  | 
z2 _bb ba g2 z2 aa ag f2  | z2 gg gf _2/4e2 cd eg f4  | 
w:   |   | 
z2 _2/4ed e3d fe ed e4  | d2 _2/4ef e2 fg gf ed e4  | 
w:  Gön *  *  *  lün *  *  *  de   |  a çar *  *  *  *  ken   | 
d2 d4 c2 _2/4e2 d2 c2 B2  | c8 (3_2/4edc (3ccB c4  | \
w:  ba har  *  *  *  çi çe  |  ği   SAZ  | 
d2 d4 _2/4e2 f2 g2 f2 e2  | 
w:  Ha zan da  sol *  *  ma  | 
d8 _2/4ed cB c4  | _2/4ed c2 ed c2 ed c4 B2  | \
w:  yı  SAZ  |  ner *  *  den  *  *  bi *  lir  | 
B8 dc B^A B4  | 
w:  sin   SAZ  | 
z2 _7/8bb ba g2 z2 aa ag f2  | z2 gg gf _2/4e2 cd eg f4  | 
w:   |   | 
z2 _2/4ed e3d fe ed e4  | d2 _2/4ef e2 fg gf ed e4  | 
w:  Gön *  *  *  lün *  *  *  de   |  a çar *  *  *  *  ken   | 
d2 d4 c2 _2/4e2 d2 c2 B2  | c8 (3_2/4edc (3ccB c4  | \
w:  ba har  *  *  *  çi çe  |  ği   SAZ  | 
d2 d4 _2/4e2 f2 g2 f2 e2  | 
w:  Ha zan da  sol *  *  ma  | 
d8 _2/4ed cB c4  | _2/4ed c2 ed c2 ed c4 B2  | \
w:  yı  SAZ  |  ner *  *  den  *  *  bi *  lir  | 
B8 dc B^A B4  | 
w:  sin   SAZ  | 
z2 _7/8bb ba g2 z2 aa ag f2  | g2 b4 c'2 b^a ga b4  | \
w:   |   | 
g2 g4 ^a2 b2 c'2 b2 a2  | 
w:  Ba har da  kok *  lar  | 
_7/8b8 c'c' b^a b4  | z2 c'4 c'2 c'2 b2 ^a2 b2  | \
w:  ken  SAZ  |  sen  çi çek *  *  le  | 
c'8 f_2/4e dc B^A B2  | 
w:  ri   SAZ  | 
^f2 g4 f2 g2 _7/8b2 a2 g2  | f8 gf _2/4eg f4  | \
w:  Be nim  yü re ğim  |  de  SAZ  | 
f2 g4 f2 gf _2/4e4 d2  | d8 dB GB d4  | 
w:  ha zan  *  renk *  *  le  |  ri   SAZ  | 
z2 _bb ba g2 z2 aa ag f2  | g2 b4 c'2 b^a ga b4  | \
w:   |   | 
g2 g4 ^a2 b2 c'2 b2 a2  | 
w:  Ba har da  kok *  lar  | 
_7/8b8 c'c' b^a b4  | z2 c'4 c'2 c'2 b2 ^a2 b2  | \
w:  ken  SAZ  |  sen  çi çek *  *  le  | 
c'8 f_2/4e dc B^A B2  | 
w:  ri   SAZ  | 
^f2 g4 f2 g2 _7/8b2 a2 g2  | f8 gf _2/4eg f4  | \
w:  Be nim  yü re ğim  |  de  SAZ  | 
f2 g4 f2 gf _2/4e4 d2  | d8 dB GB d4  | 
w:  ha zan  *  renk *  *  le  |  ri   SAZ  | 
z2 _bb ba g2 z2 aa ag f2  | z2 gg gf _2/4e2 cd eg f4  | 
w:   |   | 
z2 _2/4e2 e2 e2 e2 d2 fe ed  | _2/4e8 gf ed e4  | \
w:  Ge ri ye  bir  *  bak   |  da  SAZ  | 
d4 dc d2 _2/4ed c4 B2  | 
w:  gör  ger *  *  çek *  *  le  | 
c8 (3_2/4edc (3ccB c4  | d2 d4 _2/4e2 f2 g2 f2 e2  | \
w:  ri   SAZ  |  Ya şar ken  öl *  *  me  | 
d8 _2/4ed cB c4  | 
w:  yi  SAZ  | 
_2/4ed c2 ed c2 ed c4 B2  | B8 dc B^A B4  | |


